src/lib/packages/icons/src/assets/line/hospital-h-sign-circle.svg

<svg xmlns="http://www.w3.org/2000/svg" width="24" height="24" fill="none"><path fill="currentColor" d="M12 1.25C6.072 1.25 1.25 6.072 1.25 12S6.072 22.75 12 22.75 22.75 17.928 22.75 12 17.928 1.25 12 1.25Zm0 20c-5.101 0-9.25-4.149-9.25-9.25S6.899 2.75 12 2.75s9.25 4.149 9.25 9.25-4.149 9.25-9.25 9.25ZM15.75 8v8a.75.75 0 0 1-1.5 0v-3.25h-4.5V16a.75.75 0 0 1-1.5 0V8a.75.75 0 0 1 1.5 0v3.25h4.5V8a.75.75 0 0 1 1.5 0Z"/></svg>

<svg width="24" height="24" viewBox="0 0 24 24" fill="none" xmlns="http://www.w3.org/2000/svg">
<path d="M12 1.25C6.072 1.25 1.25 6.072 1.25 12C1.25 17.928 6.072 22.75 12 22.75C17.928 22.75 22.75 17.928 22.75 12C22.75 6.072 17.928 1.25 12 1.25ZM12 21.25C6.899 21.25 2.75 17.101 2.75 12C2.75 6.899 6.899 2.75 12 2.75C17.101 2.75 21.25 6.899 21.25 12C21.25 17.101 17.101 21.25 12 21.25ZM15.75 8V16C15.75 16.414 15.414 16.75 15 16.75C14.586 16.75 14.25 16.414 14.25 16V12.75H9.75V16C9.75 16.414 9.414 16.75 9 16.75C8.586 16.75 8.25 16.414 8.25 16V8C8.25 7.586 8.586 7.25 9 7.25C9.414 7.25 9.75 7.586 9.75 8V11.25H14.25V8C14.25 7.586 14.586 7.25 15 7.25C15.414 7.25 15.75 7.586 15.75 8Z" fill="currentColor"/>
</svg>
